src/scss/images/github-dark.svg

<svg width="25" height="24" viewBox="0 0 25 24" fill="none" xmlns="http://www.w3.org/2000/svg">
<path id="github-dark" d="M12.5 0C5.59375 0 0 5.50948 0 12.3045C0 17.742 3.58125 22.3531 8.54688 23.9788C9.17188 24.0946 9.40104 23.7137 9.40104 23.3871C9.40104 23.095 9.39062 22.3207 9.38542 21.295C5.90833 22.0369 5.175 19.6442 5.175 19.6442C4.60625 18.2241 3.78437 17.8443 3.78437 17.8443C2.65208 17.0815 3.87188 17.0971 3.87188 17.0971C5.12708 17.1827 5.78646 18.3649 5.78646 18.3649C6.90104 20.2463 8.7125 19.7027 9.42708 19.3886C9.53958 18.5924 9.86146 18.0509 10.2188 17.743C7.44271 17.4352 4.525 16.3771 4.525 11.6628C4.525 10.3198 5.00937 9.22212 5.81146 8.36127C5.67083 8.05031 5.24896 6.7992 5.92083 5.10462C5.92083 5.10462 6.96771 4.77489 9.35833 6.36617C10.3583 6.09278 11.4208 5.95713 12.4833 5.95087C13.5458 5.95713 14.6083 6.09278 15.6083 6.36617C17.9833 4.77489 19.0302 5.10462 19.0302 5.10462C19.7021 6.7992 19.2802 8.05031 19.1552 8.36127C19.9521 9.22212 20.4365 10.3198 20.4365 11.6628C20.4365 16.3897 17.5146 17.43 14.7333 17.7326C15.1708 18.102 15.5771 18.8564 15.5771 20.0094C15.5771 21.656 15.5615 22.9791 15.5615 23.3788C15.5615 23.7012 15.7802 24.0862 16.4208 23.9631C21.4219 22.3478 25 17.7336 25 12.3045C25 5.50948 19.4031 0 12.5 0V0Z" fill="#33323D"/>
</svg>

<svg width="25" height="24" fill="none" xmlns="http://www.w3.org/2000/svg"><path d="M12.5 0C5.594 0 0 5.51 0 12.305c0 5.437 3.581 10.048 8.547 11.674.625.116.854-.265.854-.592 0-.292-.01-1.066-.016-2.092-3.477.742-4.21-1.65-4.21-1.65-.569-1.42-1.39-1.8-1.39-1.8-1.133-.764.087-.748.087-.748 1.255.086 1.914 1.268 1.914 1.268 1.115 1.881 2.927 1.338 3.641 1.024.113-.797.434-1.338.792-1.646-2.776-.308-5.694-1.366-5.694-6.08 0-1.343.484-2.44 1.286-3.302-.14-.31-.562-1.562.11-3.256 0 0 1.047-.33 3.437 1.261 1-.273 2.063-.409 3.125-.415 1.063.006 2.125.142 3.125.415 2.375-1.591 3.422-1.261 3.422-1.261.672 1.694.25 2.945.125 3.256.797.861 1.281 1.959 1.281 3.302 0 4.727-2.921 5.767-5.703 6.07.438.369.844 1.123.844 2.276 0 1.647-.015 2.97-.015 3.37 0 .322.218.707.859.584 5-1.615 8.579-6.23 8.579-11.659C25 5.51 19.403 0 12.5 0z" fill="#fff"/></svg>
